X:1
T:Title
%%score { 1 | 2 }
L:1/8
M:4/4
K:Ab
V:1 treble nm="Grand Piano"
V:2 bass 
V:1
 z4 z2[Q:1/4=92] [CA][DB] | [Ec][Ec][Ec][DB] [DB][A,CA][B,DG][CEB] | %2
 [FA][FA][EG][DF] [CE]2 [CE][CE] | AAAG AFGA | [=DAc][DAB][DGB][DFA] [_DGB]2 [EB][Ec] | %5
 [Ge][Gd][Gd][Fc] [Gd]GcB | [DB][CA][DA][DF] [CE]2 [CE][CE] | %7
[M:17/16] [DF][EG][FA][FB][Ec][Ee][Ae]3/2[Fd] |[M:7/8] [Ec][CA][=Dc] [_DB] [CA]3 |[M:1/4] cd | %10
[M:4/4] e2 c2 B A2 B | c2 A2 [CF] [CE]2 [CE] |[M:2/4] [DF][EG] [FA][FB] | ce ec |[M:3/4] [EGB]6 | %15
[M:1/4] cd |[M:4/4] e2 c2 B A2 B | c2 A2 [CF] [CE]2 [CE] |[M:2/4] [DF][EG] [FA][FB] | %19
 [Ec][Ae] [DGB][Ec] |[M:3/4] [CEA]6 |] %21
V:2
 z4 z2 [A,,A,][A,,A,] | [A,,A,][A,,A,][A,,A,][A,,E,] [A,,E,]A,,A,,A,, | %2
 [D,D][D,D][D,D][D,A,] [A,,A,]2 [A,,A,][A,,A,] | %3
 [F,A,C][F,CF][F,CF][F,C] [F,CF][F,A,][F,B,E][F,CF] | B,,B,,B,,B,, E,2 [E,G,][E,A,] | %5
 [E,C][E,B,][E,B,][E,=A,] [E,B,][E,B,E][E,_A,E][E,G,D] | %6
 [A,,A,][A,,E,][A,,F,][A,,A,] [A,,A,]2 [A,,A,][A,,A,] | %7
[M:17/16] [D,A,][D,A,][D,A,][D,A,][A,,A,][C,A,][C,A,]3/2[D,A,] | %8
[M:7/8] [E,A,][F,A,][B,,A,] [E,G,] [A,,A,]3 |[M:1/4][K:treble] [A,E][A,B,E] | %10
[M:4/4] [A,CA]2 [A,EA]2 [A,DE] [A,CE]2 [A,DE] | [A,EG]2[K:bass] [A,CE]2 [A,,A,] [A,,A,]2 [A,,A,] | %12
[M:2/4] [D,A,][D,A,] [D,A,][D,A,] | [A,E][A,CA] [A,CA][A,EA] |[M:3/4][K:bass] E,2 E,F, E,2 | %15
[M:1/4] [A,E][K:treble][A,B,E] |[M:4/4] [A,CA]2 [A,EA]2 [A,DE] [A,CE]2 [A,DE] | %17
 [A,EG]2[K:bass] [A,CE]2 [A,,A,] [A,,A,]2 [A,,A,] |[M:2/4] [D,A,][D,A,] [D,A,][D,A,] | %19
 [E,B,][E,C] E,E, |[M:3/4] A,,6 |] %21

